X:131
T:Hard Times. RH.131
R:reel
S:Rev.R.Harrison’s MS,c1815,Cumbria
N:N.B. the triplets are in semi-quavers in the MS..CGP.
N:A pretty tune, if not rushed too much. PJH.
O:England
A:Temple Sowerby,Cumbria
Z:vmp.Simon Wilson. Review PJH, 2008.
M:C
L:1/8
Q:1/2=80
K:A
AEBE ((3cBc) d2|ceAc BBGE|\
AEBE ((3cBc) df|ecdB AGA2:|!
|:aecA gefd|ec (d/c/B/A/) GBBg|\
aecA aefd|ecfd ((3gfg) a2|!
eaca Acec|dcBA GABG|\
AEBE ((3cBc) df|ecdB A”sic”FA2:|

